modules/zondicons/icons/inbox-download.svg

<?xml version="1.0" encoding="UTF-8" standalone="no"?>
<svg width="20px" height="20px" viewBox="0 0 20 20" version="1.1" xmlns="http://www.w3.org/2000/svg" xmlns:xlink="http://www.w3.org/1999/xlink">
    <!-- Generator: Sketch 3.7.2 (28276) - http://www.bohemiancoding.com/sketch -->
    <title>inbox-download</title>
    <desc>Created with Sketch.</desc>
    <defs></defs>
    <g id="Page-1" stroke="none" stroke-width="1" fill="none" fill-rule="evenodd">
        <g id="inbox-download" fill="#000000">
            <path d="M14,14 L18,14 L18,2 L2,2 L2,14 L6,14 L6,14.0020869 C6,15.1017394 6.89458045,16 7.99810135,16 L12.0018986,16 C13.1132936,16 14,15.1055038 14,14.0020869 L14,14 Z M0,1.99079514 C0,0.891309342 0.898212381,0 1.99079514,0 L18.0092049,0 C19.1086907,0 20,0.898212381 20,1.99079514 L20,18.0092049 C20,19.1086907 19.1017876,20 18.0092049,20 L1.99079514,20 C0.891309342,20 0,19.1017876 0,18.0092049 L0,1.99079514 Z M10,12 L14,8 L6,8 L10,12 Z M9,8 L11,8 L11,5 L9,5 L9,8 Z" id="Combined-Shape"></path>
        </g>
    </g>
</svg>

<svg width="20" height="20" viewBox="0 0 20 20" xmlns="http://www.w3.org/2000/svg"><path d="M14 14h4V2H2v12h4v.002A2 2 0 0 0 7.998 16h4.004A1.993 1.993 0 0 0 14 14.002V14zM0 1.99C0 .892.898 0 1.99 0h16.02C19.108 0 20 .898 20 1.99v16.02c0 1.099-.898 1.99-1.99 1.99H1.99C.892 20 0 19.102 0 18.01V1.99zM10 12l4-4H6l4 4zM9 8h2V5H9v3z" fill="#000" fill-rule="evenodd"/></svg>
